X:1
T:Title
%%score [ ( 1 2 ) ( 3 4 ) ]
L:1/8
Q:1/4=240
M:4/4
K:Ab
V:1 treble nm="Midi_74"
V:2 treble 
V:3 bass nm="Midi_74"
V:4 bass 
V:1
"^Psalm 22 vv1-22" A8 | A4 A4 | G8 || A8 | F4 A4 | G4 F4 | =E8 || A8 | d4 B4 | G8 || c8 | F4 G4 | %12
 F4 =E4 |"^S. Wesley" F8 |] %14
V:2
 C8 | (B,2 C2) D4 | D8 || C8 | D4 F4 | D4 B,4 | C8 || C8 | F4 D4 | B,8 || E8 | D4 D4 | C6 B,2 | %13
 A,8 |] %14
V:3
 F,8 | F,4 B,4 | B,8 || A,8 | A,4 C4 | B,4 F,4 | G,8 || F,8 | F,4 F,4 | E,8 || C8 | A,4 B,4 | %12
 A,4 G,4 | F,8 |] %14
V:4
 F,8 | D,4 B,,4 | E,8 || A,,8 | D,4 A,,4 | B,,4 D,4 | C,8 || F,8 | B,,4 D,4 | E,8 || A,,8 | %11
 D,4 B,,4 | C,4 C,4 | F,,8 |] %14

